X:1
T:Mason’s Chant, CM
T:William Batchelder Bradbury (1816-1868)
T:Mason’s Chant, CM
T:Public Domain
C:William Batchelder Bradbury (1816-1868)
Z:Public Domain
%%score ( 1 2 ) ( 3 4 )
L:1/8
M:3/2
K:Db
V:1 treble 
V:2 treble 
V:3 bass 
V:4 bass 
V:1
 [FA]4 | [FA]3 [GA] A2 [FA]2 [EA]2 [GA]2 | (A4 d4) [FA]4 | [GB]2 [GB]2 [GB]4 [Gd]4 | [FA]8 [Fd]4 | %5
 [Ec]3 [Ec] [Ec]2 [Ec]2 [DB]2 [CA]2 | [Dd]8 [FA]4 | [GB]2 ([Bd][GB]) [FA]4 (E2 G2) | [FA]8 x4 |] %9
 x8 |] %10
V:2
 x4 | x4 A2 x6 | F8 x4 | x12 | x12 | x12 | x12 | x8 A4 | x12 |] x8 |] %10
V:3
 [D,D]4 | [D,D]3 [E,C] [F,D]2 [D,D]2 [A,C]2 x2 | [A,,E]2 x10 | [D,D]8 [D,D]4 | %4
 [G,D]2 [G,D]2 [G,D]4 [G,,B,]2 [B,,D]2 | [D,D]8 [D,A,]4 | A,3 A, A,2 A,2 A,2 (A,G,) | %7
 [F,A,]8 (A,2 D2) | [G,D]2 [G,D]2 [A,D]4 [A,,C]4 |] [D,D]8 |] %10
V:4
 x4 | x12 | x12 | x12 | x12 | x12 | A,3 A, A,2 A,2 A,2 A,2 | x8 D,4 | x12 |] x8 |] %10

